X: 365
T: the Ewie wi' the Crookit Horn
O: Wood's Songs of Scotland, Edinburgh, 1848
R: march
%S: s:4 b:16(4+4+4+4)
B: O'Neill's "Waifs and Strays of Gaelic Melody" ed.2 p.186 #365
Z: 2022 John Chambers <jc:trillian.mit.edu>
M: 2/4
L: 1/8
K: F
% - - - - - - - - - -
V: 1 staves=2
C | C>F FG | E>F GE | C>F FA | BG AF ||
    B>A GF | E>F GE | C>F FA | G>E F |]
B | A<c cd | B<c BG | Ac cd | ec f2 ||
    _e>f ec | BG _EG | CF FA | G>=E F |]
% - - - - - - - - - -
% Voice 2 preserves the staff layout in the book.
V: 2 clef=bass middle=d
z |\
[F2f2] [f2a2c'2] | c2 [e2b2] | [F2f2] [f2a2c'2] | c2 [f2a2c'2] ||\
B2 [f2b2d'2] | c2 [e2b2] | [F2f2] [f2a2c'2] | [c2b2] [fa] |]
z |\
[F2f2] [f2a2c'2] | [G2g2] [g2b2d'2] | [F2f2] [f2a2c'2] | [c2g2b2] [f2a2] ||\
B2 [g2c'2] | [E2e2] [e2g2b2] | [F2f2] [f2a2c'2] | [c2b2] [fa] |]
